openmetadata-ui/src/main/resources/ui/src/assets/svg/ic-teams.svg

<svg width="20" height="20" viewBox="0 0 20 20" fill="none" xmlns="http://www.w3.org/2000/svg">
<path d="M18.2309 9.43174C18.7215 8.96603 19.0285 8.30849 19.0285 7.58021C19.0285 6.17197 17.8828 5.02631 16.4746 5.02631C15.0663 5.02631 13.9206 6.17201 13.9206 7.58021C13.9206 8.30857 14.2276 8.96619 14.7184 9.43189C14.3362 9.6524 13.9988 9.94228 13.7241 10.2846C13.3396 9.47611 12.6991 8.81228 11.9083 8.39732C12.5465 7.85533 12.9526 7.04783 12.9526 6.14689C12.9526 4.51884 11.6281 3.19431 10 3.19431C8.37199 3.19431 7.04746 4.51884 7.04746 6.14689C7.04746 7.04783 7.45355 7.85529 8.09176 8.39732C7.30102 8.81228 6.66047 9.47611 6.27598 10.2846C6.00125 9.94228 5.66387 9.6524 5.28164 9.43189C5.77246 8.96619 6.07945 8.30857 6.07945 7.58021C6.07945 6.17197 4.93375 5.02631 3.52551 5.02631C2.11727 5.02631 0.971602 6.17201 0.971602 7.58021C0.971602 8.30849 1.27852 8.96603 1.76922 9.43174C0.712656 10.0413 0 11.1828 0 12.4878V16.8057H20V12.4878C20 11.1828 19.2873 10.0413 18.2309 9.43174ZM3.52547 6.19818C4.28754 6.19818 4.90754 6.81818 4.90754 7.58021C4.90754 8.34224 4.28754 8.96224 3.52547 8.96224C2.7634 8.96228 2.14344 8.34228 2.14344 7.58021C2.14344 6.81814 2.76344 6.19818 3.52547 6.19818ZM5.87906 15.6338H1.17188V12.4878C1.17188 11.19 2.2277 10.1342 3.52547 10.1342C4.82324 10.1342 5.87906 11.19 5.87906 12.4878V15.6338ZM10 4.36623C10.9819 4.36623 11.7807 5.16506 11.7807 6.14693C11.7807 7.12881 10.9819 7.92759 10 7.92759C9.01812 7.92759 8.2193 7.12881 8.2193 6.14693C8.2193 5.16506 9.01812 4.36623 10 4.36623ZM12.9491 15.6338H7.05094V12.0485C7.05094 10.4224 8.37387 9.09947 10 9.09947C11.6261 9.09947 12.9491 10.4224 12.9491 12.0485V15.6338ZM16.4745 6.19818C17.2366 6.19818 17.8566 6.81818 17.8566 7.58021C17.8566 8.34224 17.2366 8.96224 16.4745 8.96224C15.7125 8.96224 15.0925 8.34224 15.0925 7.58021C15.0925 6.81818 15.7125 6.19818 16.4745 6.19818ZM18.8281 15.6338H14.1209V12.4877C14.1209 11.1899 15.1768 10.1341 16.4745 10.1341C17.7723 10.1341 18.8281 11.1899 18.8281 12.4878V15.6338Z" fill="#76746F"/>
</svg>

<svg xmlns="http://www.w3.org/2000/svg" width="20" height="20" fill="none"><path fill="#76746F" d="M18.23 9.432c.491-.466.799-1.124.799-1.852a2.557 2.557 0 0 0-2.554-2.554A2.557 2.557 0 0 0 13.92 7.58c0 .729.307 1.386.797 1.852-.382.22-.72.51-.994.853a4.148 4.148 0 0 0-1.816-1.888 2.947 2.947 0 0 0 1.045-2.25A2.956 2.956 0 0 0 10 3.194a2.956 2.956 0 0 0-2.953 2.953c0 .9.407 1.708 1.045 2.25a4.148 4.148 0 0 0-1.816 1.888 3.551 3.551 0 0 0-.994-.853c.49-.466.797-1.123.797-1.852a2.557 2.557 0 0 0-2.553-2.554A2.557 2.557 0 0 0 .972 7.58c0 .728.307 1.386.797 1.852A3.528 3.528 0 0 0 0 12.488v4.318h20v-4.318a3.528 3.528 0 0 0-1.77-3.056ZM3.526 6.198c.763 0 1.383.62 1.383 1.382a1.384 1.384 0 0 1-2.764 0c0-.762.62-1.382 1.381-1.382Zm2.354 9.436H1.172v-3.146a2.356 2.356 0 0 1 2.353-2.354 2.356 2.356 0 0 1 2.354 2.354v3.146ZM10 4.366c.982 0 1.78.8 1.78 1.78 0 .983-.798 1.782-1.78 1.782s-1.78-.8-1.78-1.781c0-.982.798-1.78 1.78-1.78Zm2.95 11.268h-5.9v-3.585A2.952 2.952 0 0 1 10 9.099a2.952 2.952 0 0 1 2.95 2.95v3.585Zm3.524-9.436c.763 0 1.383.62 1.383 1.382a1.384 1.384 0 0 1-2.764 0c0-.762.62-1.382 1.381-1.382Zm2.354 9.436h-4.707v-3.146a2.356 2.356 0 0 1 2.353-2.354 2.356 2.356 0 0 1 2.354 2.354v3.146Z"/></svg>
